X:1
T:Concert Étude after Paganini's 6th Caprice
T:Concert Étude after Paganini's 6th Caprice
T:Op. 10, No. 2
T:Robert Schumann
C:Robert Schumann
%%score { ( 1 2 5 ) | ( 3 4 6 7 ) }
L:1/8
Q:1/4=45
M:3/4
K:Bb
V:1 treble nm="Piano" snm="Pno."
V:2 treble 
V:5 treble 
V:3 bass 
V:4 bass 
V:6 bass 
V:7 bass 
V:1
"^Non troppo lento"!p!"^cantabile" (d3 g^fe | d3) (d=cB | A3 cAG | B2 A)!<(!AG^F!<)! |!p! d3 dee | %5
 e3 edd | c3 _dc_B | cffcdf | f-f/^f/ g"_cresc."^c=eg | fb!f! !^!B2 (cA |!>(! B2) z!>)!!p! FG_G | %11
!p! _G2 FF=G_G | _G2 F!>!B!>!B!>!c | c!>!dd!>!=ff!>!a | b!>!bc'_d'c'^c' |!ff! d'bf"_dim."dcA | %16
 (BA"^smorzando"_AG_GF |!pp! F4)!<(! [D^F]2!<)! :|[Q:1/4=53]"^Un poco più moto"!p! (=B3 B!<(!cd | %19
 e!<)!!mp!fggfe) |"^sempre legato"!<(! d3!<)! _AGF |!f! cdedcB | A3 ^cd!<(!=e | fga!<)!agf | %24
!<(! =e3!<)! BAG |!f! d=efed=c | c2!>(! =B_B!>)!BB | (e"_dim."d_dc_cB | _d2 cdcc) | (f=e_ed_dc | %30
 _e2 dedd) | (gfecec) | (fedBdB) | (ed!<(!cAcA) | (dcBd!<)!!mf!d^c) |!ff! [^Fd]2 ([gb][bd'][ac']b | %36
 a[eg]^f[ce]d[GB] | %37
[Q:1/4=53] [^FA][Q:1/4=50][Q:1/4=48]"^dim."[_EG][Q:1/4=45][Q:1/4=43]F[Q:1/4=40][Q:1/4=38][CE][Q:1/4=35][Q:1/4=33]D[Q:1/4=30][Q:1/4=28][A,C])[Q:1/4=25][Q:1/4=51]"^.3"[Q:1/4=49]"^.7"[Q:1/4=46]"^.3"[Q:1/4=44]"^.7"[Q:1/4=41]"^.3"[Q:1/4=39]"^.7"[Q:1/4=36]"^.3"[Q:1/4=34]"^.7"[Q:1/4=31]"^.3"[Q:1/4=29]"^.7"[Q:1/4=26]"^.3"[Q:1/4=24]"^.7" | %38
[Q:1/4=45]!p! d3 g^fe | d3 d=cB | A3 cAG | B2 A!<(!AG^F!<)! | x6 | x6 | x6 | %45
[I:staff +1] G,,,"^m.s."[I:staff -1] G[I:staff +1] G,,,[I:staff -1] G[I:staff +1] G,,,[I:staff -1] G | %46
[I:staff +1] C,,[I:staff -1] [GA][I:staff +1] C,,!>(![I:staff -1] [GA][I:staff +1] C,,[I:staff -1] [DA]!>)! | %47
 x6 | x6 | x6 | x6 ||[K:G] x6 |] %52
V:2
 (3[GB]/[GB]/[GB]/ (3[GB]/[GB]/[GB]/ (3[GB]/[GB]/[GB]/ (3[Ge]/[Ge]/[Ge]/ (3[Gd]/[Gd]/[Gd]/ (3[Gc]/[Gc]/[Gc]/ | %1
 (3[GB]/[GB]/[GB]/ (3[GB]/[GB]/[GB]/ (3[GB]/[GB]/[GB]/ (3[=FA]/[FA]/[FA]/ (3[EG]/[EG]/[EG]/ (3[DF]/[DF]/[DF]/ | %2
 (3[CE]/[CE]/[CE]/ (3[CE]/[CE]/[CE]/ (3[CE]/[CE]/[CE]/ (3[CE]/[CE]/[CE]/ (3[^C=E]/[CE]/[CE]/ (3[CE]/[CE]/[CE]/ | %3
 (3[DG]/[DG]/[DG]/ (3[DG]/[DG]/[DG]/ (3[D^F]/[DF]/[DF]/ (3[=CE]/[CE]/[CE]/ (3[B,D]/[B,D]/[B,D]/ (3[A,D]/[A,D]/[A,D]/ | %4
 (3[GB]/[GB]/[GB]/ (3[GB]/[GB]/[GB]/ (3[GB]/[GB]/[GB]/ (3[G=B]/[GB]/[GB]/ (3[G=c]/[Gc]/[Gc]/ (3[_Gc]/[Gc]/[Gc]/ | %5
 (3[Fc]/[Fc]/[Fc]/ (3[Fc]/[Fc]/[Fc]/ (3[Fc]/[Fc]/[Fc]/ (3[^Fc]/[Fc]/[Fc]/ (3[=G_B]/[GB]/[GB]/ (3[=F_A]/[FA]/[FA]/ | %6
 (3[EG]/[EG]/[EG]/ (3[EG]/[EG]/[EG]/ (3[EG]/[EG]/[EG]/ (3[=EG]/[EG]/[EG]/ (3[EG]/[EG]/[EG]/ (3[EG]/[EG]/[EG]/ | %7
 (3[_EA]/[EA]/[EA]/ (3[EA]/[EA]/[EA]/ (3[D_B]/[DB]/[DB]/ (3[_GA]/[GA]/[GA]/ (3[FB]/[FB]/[FB]/ (3[EA]/[EA]/[EA]/ | %8
 (3[DB]/[DB]/[DB]/ (3[DB]/[DB]/[DB]/ (3[EB]/[EB]/[EB]/ (3[=EB]/[EB]/[EB]/ (3[B^c]/[Bc]/[Bc]/ (3[Bc]/[Bc]/[Bc]/ | %9
 (3[Bd]/[Bd]/[Bd]/ (3[Bd]/[Bd]/[Bd]/ (3[DF]/[DF]/[DF]/ (3[DF]/[DF]/[DF]/ (3[_EF]/[EF]/[EF]/ (3[CE]/[CE]/[CE]/ | %10
 (3[B,D]/[B,D]/[B,D]/ (3[B,D]/[B,D]/[B,D]/ (3[B,D]/[B,D]/[B,D]/ (3[B,D]/[B,D]/[B,D]/ (3[B,E]/[B,E]/[B,E]/ (3[B,E]/[B,E]/[B,E]/ | %11
 (3[A,E]/[A,E]/[A,E]/ (3[A,E]/[A,E]/[A,E]/ (3[B,D]/[B,D]/[B,D]/ (3[B,D]/[B,D]/[B,D]/ (3[B,E]/[B,E]/[B,E]/ (3[B,E]/[B,E]/[B,E]/ | %12
 (3[A,E]/[A,E]/[A,E]/ (3[A,E]/[A,E]/[A,E]/ (3[B,D]/[B,D]/[B,D]/ (3[D_A]/[DA]/[DA]/ (3[E=G]/[EG]/[EG]/ (3[=EB]/[EB]/[EB]/ | %13
 (3[FA]/[FA]/[FA]/ (3[^Fc]/[Fc]/[Fc]/ (3[GB]/[GB]/[GB]/ (3[Ae]/[Ae]/[Ae]/ (3[Bd]/[Bd]/[Bd]/ (3[ce]/[ce]/[ce]/ | %14
 (3[Bd]/[Bd]/[Bd]/ (3[Be]/[Be]/[Be]/ (3[B=e]/[Be]/[Be]/ (3[Be]/[Be]/[Be]/ (3[Bg]/[Bg]/[Bg]/ (3[Bb]/[Bb]/[Bb]/ | %15
 (3[dfb]/[dfb]/[dfb]/ (3[df]/[df]/[df]/ (3[Bd]/[Bd]/[Bd]/ (3[FB]/[FB]/[FB]/ (3[_EA]/[EA]/[EA]/ (3[CE]/[CE]/[CE]/ | %16
 (3[B,D]/[B,D]/[B,D]/ (3[B,D]/[B,D]/[B,D]/ (3[B,D]/[B,D]/[B,D]/ (3[B,E]/[B,E]/[B,E]/ (3[=A,E]/[A,E]/[A,E]/ (3[A,E]/[A,E]/[A,E]/ | %17
 B,4 x2 :| (3G/=B,/G/ (3B,/G/B,/ (3G/B,/G/ (3B,/G/B,/ (3A/C/A/ (3D/=B/D/ | %19
 (3c/E/c/ (3F/d/F/ (3e/G/e/ (3G/e/G/ (3d/F/d/ (3E/c/E/ | %20
 (3=B/D/B/ (3D/B/D/ (3B/D/B/ (3C/F/C/ (3E/=B,/E/ (3B,/D/B,/ | %21
 (3E/C/E/ (3D/F/D/ (3G/E/G/ (3D/F/D/ (3E/C/E/ (3B,/D/B,/ | %22
 (3^C/A,/C/ (3A,/C/A,/ (3C/A,/C/ (3C/A/C/ (3=B/D/B/ (3=E/^c/E/ | %23
 (3d/F/B/ (3G/=e/G/ (3f/A/f/ (3A/f/A/ (3e/G/e/ (3F/d/F/ | %24
 (3^c/=E/c/ (3E/c/E/ (3c/E/c/ (3D/G/D/ (3F/^C/F/ (3C/E/C/ | %25
 (3F/D/F/ (3=E/G/E/ (3A/F/A/ (3E/G/E/ (3F/D/F/ (3D/^F/D/ | %26
 (3G/D/G/ (3D/G/D/ (3G/D/G/ (3D/G/D/ (3_A/D/A/ (3D/A/D/ | %27
 (3B/E/B/ (3E/=B/E/ (3_B/E/B/ (3E/A/E/ (3_A/=D/A/ (3E/=G/E/ | %28
 (3B/=E/B/ (3E/B/E/ (3B/E/B/ (3E/B/E/ (3B/E/B/ (3E/G/E/ | %29
 (3c/F/c/ (3F/^c/F/ (3=c/F/c/ (3F/=B/F/ (3_B/=E/B/ (3F/A/F/ | %30
 (3c/^F/c/ (3F/c/F/ (3c/F/c/ (3F/c/F/ (3c/F/c/ (3F/A/F/ | %31
 (3d/=F/d/ (3G/=B/G/ (3c/G/c/ (3E/G/E/ (3G/E/G/ (3E/_B/E/ | %32
 (3A/E/A/ (3F/A/F/ (3B/F/B/ (3D/F/D/ (3F/D/F/ (3D/A/D/ | %33
 (3G/D/G/ (3E/G/E/ (3G/E/G/ (3C/E/C/ (3E/C/E/ (3C/G/C/ | %34
 (3^F/C/F/ (3D/F/D/ (3G/D/G/ (3D/G/D/ (3B/G/B/ (3G/A/G/ | x2 z .g/.=f/ .=e/.^f/.g/.d/ | %36
 .^f/.A/.B/.c/ .d/.^F/.G/.A/ .B/.G/.=E/.^C/ | %37
 .D/"^.5"[I:staff +1].A,/.B,/"^.5".C/[I:staff -1] .D/"^.5"[I:staff +1].^F,/.G,/"^.5".A,/[I:staff -1] .B,/"^.5"[I:staff +1].D,/.=E,/"^.5".F,/ | %38
[I:staff -1] (3[GB]/[GB]/[GB]/ (3[GB]/[GB]/[GB]/ (3[GB]/[GB]/[GB]/ (3[Ge]/[Ge]/[Ge]/ (3[Gd]/[Gd]/[Gd]/ (3[G=c]/[Gc]/[Gc]/ | %39
 (3[GB]/[GB]/[GB]/ (3[GB]/[GB]/[GB]/ (3[GB]/[GB]/[GB]/ (3[=FA]/[FA]/[FA]/ (3[EG]/[EG]/[EG]/ (3[DF]/[DF]/[DF]/ | %40
 (3[CE]/[CE]/[CE]/ (3[CE]/[CE]/[CE]/ (3[CE]/[CE]/[CE]/ (3[CE]/[CE]/[CE]/ (3[CE]/[CE]/[CE]/ (3[^C=E]/[CE]/[CE]/ | %41
 (3[DG]/[DG]/[DG]/ (3[DG]/[DG]/[DG]/ (3[D^F]/[DF]/[DF]/ (3[=C_E]/[CE]/[CE]/ (3[_B,D]/[B,D]/[B,D]/ (3[A,C]/[A,C]/[A,C]/ | %42
 x6 | x6 | x6 | x6 | x6 | x6 | x6 | x6 | x6 ||[K:G] x6 |] %52
V:3
{/G,,} (3(D/^C/D/ (3^F,/G,/^C,/ D,2) z2 | (3(G,/^F,/G,/ (3^C,/D,/^F,,/ G,,2) z2 | %2
 (3(G,/^F,/G,/ (3=B,,/C,/^F,,/ G,,2) z{/^G,,A,,_B,,} TA,,{G,,A,,} | %3
{/D,,} (3(D,/^C,/D,/ (3^F,,/G,,/^C,,/ D,,2) z2 | %4
{/G,,} (3(D/^C/D/ (3^F,/G,/^C,/ D,) z/ (=F,E,._B,/) | %5
 (3(A,/^G,/A,/ (3=B,,/C,/^G,,/ A,,) z/ (A,B,.=B,/) | (3(C/=B,/C/ (3^F,/G,/=B,,/ C,) z/ (_B,G,.C/) | %7
!ped! (3(F,/=E,/F,/ (3=B,,/C,/=E,,/!ped-up! F,,) z/ (_E,D,.C,/) | %8
!ped! (3(B,,/=E,/F,/[K:treble] (3B,/F/_A/!ped-up!!ped! G) z/!ped-up![K:bass] !>!G,!>!B,!>![=E,B,G]/ | %9
({/F,B,} (3F/=E/F/ (3A,/B,/=E,/ (3G,/F,/D,/ (3B,,/G,,/F,,/)!>(!{/=E,,F,,G,,} TF,,2{E,,F,,}!>)! | %10
 B,,,2 z!<(! (B,,E,_D,!<)! |!>(! C,2!>)! B,,)(B,,,E,,_D,, | %12
 (3z/ F,,/F,,/ (3F,,/F,,/F,,/ F,,) x x2 |"_cresc." =F, z/ (A,G,)(TC/{=B,C} _B,) z/ (_G/- | %14
 G/F/){/^F=GA}T=G{^F} G z/ !>!C!>!=E!>!G/ | %15
{/=EFG} TF2{EF=E,F,G,} TF,2{E,F,=E,,F,,G,,} TF,,2{E,,F,,} | B,,,2 F,E, CF, | %17
 C2 F, x (3(.A,,/.D,/.C,/ (3.B,,/.A,,/._A,,/) :| %18
 (3G,,/G,/G,,/ (3G,/G,,/G,/ (3G,,/G,/G,,/ (3G,/G,,/G,/ (3G,,/^F,/G,,/ (3=F,/G,,/F,/ | %19
 (3G,,/E,/G,,/ (3D,/G,,/D,/ (3G,,/C,/G,,/ (3C,/G,,/C,/ (3G,,/D,/G,,/ (3E,/G,,/E,/ | %20
 (3G,,/F,/G,,/ (3G,/G,,/G,/ (3G,,/_A,/G,,/ (3D,/G,,/D,/ (3G,,/G,/G,,/ (3A,/G,,/A,/ | %21
 (3G,,/G,/G,,/ (3F,/G,,/F,/ (3G,,/E,/G,,/ (3F,/G,,/F,/ (3G,,/G,/G,,/ (3G,/G,,/G,/ | %22
 (3G,,/G,/G,,/ (3F,/A,,/F,/ (3A,,/=E,/A,,/ (3A,/A,,/A,/ (3A,,/^G,/A,,/ (3=G,/A,,/G,/ | %23
 (3A,,/F,/A,,/ (3=E,/A,,/E,/ (3A,,/D,/A,,/ (3D,/A,,/D,/ (3A,,/E,/A,,/ (3F,/A,,/F,/ | %24
 (3A,,/G,/A,,/ (3A,/A,,/A,/ (3A,,/B,/A,,/ (3=E,/A,,/E,/ (3A,,/A,/A,,/ (3B,/A,,/B,/ | %25
 (3A,,/A,/A,,/ (3G,/G,,/G,/ (3A,,/F,/A,,/ (3G,/A,,/G,/ (3A,,/A,/A,,/ (3A,/D,/A,/ | %26
 (3([G,,G,]/[^F,,^F,]/[G,,G,]/ (3[^C,,^C,]/[D,,D,]/[^F,,,^F,,]/) [G,,,G,,] z/ G,=F,T_A,/ | %27
 G,2- G,/!>!G,!>!_G,!>!F,!>!=G,/- | (3(G,/^F,/G,/ (3=B,,/C,/^F,,/) G,,2 z (T_B,{A,B,} | %29
 A,2-) A,/!>!A,!>!_A,!>!G,!>!=A,/- | (3(A,/^G,/A,/ (3^C,/D,/^G,,/ A,,2) z (T=C | %31
 =B,)!p!.D/.G,/ .C/._B,,/.B,/.E,/ .A,/.G,,/.G,/.C,/ | %32
 .F,/.F,,/.C/.F,/ .B,/.A,,/.A,/.F,/ .G,/.F,,/.F,/.B,,/ | %33
 .E,/.E,,/.B,/.E,/ .A,/.G,,/.G,/.C,/ .^F,/.E,,/.E,/.A,,/ | %34
 .D,/.D,,/.A,/.D,/ .G,/.=F,,/.F,/.B,,/ .E,/.E,,/.E/.E,/ | %35
 (3[D,D]/[D,D]/[D,D]/ (3[D,D]/[D,D]/[D,D]/ (3!^![D,D]/[D,D]/[D,D]/ (3[D,D]/[D,D]/[D,D]/ (3!^![D,D]/[D,D]/[D,D]/ (3[D,D]/[D,D]/[D,D]/ | %36
 !^!D2 !^!D2 !^!D2 | D,6 |!ped!{/D,,B,,G,} (3D/^C/D/ (3^F,/G,/^C,/ D,2!ped-up! z2 | %39
 (3(G,/^F,/G,/ (3^C,/D,/^F,,/ G,,2) z2 | %40
 (3(G,/^F,/G,/ (3=B,,/C,/^F,,/ G,,2) z!<(!{/^G,,A,,_B,,} TA,,{G,,A,,}!<)! | %41
{/D,,} (3(D,/^C,/D,/ (3^F,,/G,,/^C,,/ D,,2) z2 |!p!!<(! =F2 =E!<)!_EDE |!p!!<(! E2 EE!<)!DD | %44
!f! E"_marcato"!>(!^CDB,=CA,!>)! | B,DB,!<(!DDF!<)! | GEDB,CA, | G!>(!=F=E_E!>)! !^!^F2 | %48
 G!>(!=F=E_E!>)! !>!^F2 | %49
 (G"^m.s."[I:staff -1]B[I:staff +1] G[I:staff -1]B[I:staff +1] G[I:staff -1]B) | %50
!pp!"^morendo"[I:staff +1] (.G2 .G2 .G2) ||[K:G]!ped! (.G2!ped-up! .G2 .!fermata!G) !fermata!z |] %52
V:4
 x6 | x6 | x6 | x6 | x6 | x6 | x6 | x6 | x[K:treble] x5/2[K:bass] x5/2 | x6 | x6 | %11
 (3z/ F,,/F,,/ (3F,,/F,,/F,,/ B,, x x2 | C,,2 B,,, z/ (F,E,)TG,/{^F,G,} | x6 | x6 | x6 | %16
 x2 B,,2 B,,2 | B,,2- (3B,,/B,,/B,,/ (3B,,/B,,/B,,/ x2 :| x6 | x6 | x6 | x6 | x6 | x6 | x6 | x6 | %26
 x6 | x6 | x6 | x6 | x6 | x6 | x6 | x6 | x6 | x6 | %36
 (3D,/D,/D,/ (3D,/D,/D,/ (3D,/D,/D,/ (3D,/D,/D,/ (3D,/D,/D,/ (3D,/D,/D,/ | %37
 (3D,,/D,,/D,,/ (3D,,/D,,/D,,/ (3D,,/D,,/D,,/ (3D,,/D,,/D,,/ (3D,,/D,,/D,,/ (3D,,/D,,/!fermata!D,,/ | %38
 D,,2 G,,2 x2 | x6 | x6 | x6 | (3(D,/^C,/D,/ (3_A,,/G,,/D,,/ =C,,) z/ C,,G,,=C,/ | %43
 (3(A,,/^G,,/A,,/ (3E,,/D,,/_B,,,/ A,,,) z/ A,,,B,,,=B,,,/ | %44
 (.C,,/.D,,/.E,,/.B,,/ .D,,/.G,,/.=F,,/.E,,/ .D,,/.C,,/.B,,,/.A,,,/) | %45
 (3[D,G,]/[D,G,]/[D,G,]/ (3[D,B,]/[D,B,]/[D,B,]/ (3[D,G,]/[D,G,]/[D,G,]/ (3[D,B,]/[D,B,]/[D,B,]/ (3[G,=B,]/[G,B,]/[G,B,]/ (3[G,D]/[G,D]/[G,D]/ | %46
 (3[G,E]/[G,E]/[G,E]/ (3[G,C]/[G,C]/[G,C]/ (3[G,B,]/[G,B,]/[G,B,]/ (3[D,G,]/[D,G,]/[D,G,]/ (3[D,A,]/[D,A,]/[D,A,]/ (3[D,^F,]/[D,F,]/[D,F,]/ | %47
 (3[G,B,]/[G,B,]/[G,B,]/ (3[G,=B,]/[G,B,]/[G,B,]/ (3[G,=C]/[G,C]/[G,C]/ (3[G,C]/[G,C]/[G,C]/ (3[G,A,]/[G,A,]/[G,A,]/!>(! (3[G,A,]/[G,A,]/[G,A,]/ | %48
 (3[G,B,]/[G,B,]/[G,B,]/!>)! (3[G,=B,]/[G,B,]/[G,B,]/ (3[G,=C]/[G,C]/[G,C]/ (3[G,C]/[G,C]/[G,C]/ (3[G,A,]/[G,A,]/[G,A,]/!>(! (3[G,A,]/[G,A,]/[G,A,]/!>)! | %49
 (3[G,B,]/[G,B,]/[G,B,]/ (3[G,D]/[G,D]/[G,D]/ (3[G,B,]/[G,B,]/[G,B,]/ (3[G,D]/[G,D]/[G,D]/ (3[G,B,]/[G,B,]/[G,B,]/ (3[G,D]/[G,D]/[G,D]/ | %50
 (3[G,B,]/[G,B,]/[G,B,]/ (3[G,B,]/[G,B,]/[G,B,]/ (3[G,B,]/[G,B,]/[G,B,]/ (3[G,B,]/[G,B,]/[G,B,]/ (3[G,B,]/[G,B,]/[G,B,]/ (3[G,B,]/[G,B,]/[G,B,]/ || %51
[K:G] (3[G,B,]/[G,B,]/[G,B,]/ (3[G,B,]/[G,B,]/[G,B,]/ (3[G,B,]/[G,B,]/[G,B,]/ (3[G,B,]/[G,B,]/[G,B,]/ [G,B,] !fermata!z |] %52
V:5
 x6 | x6 | x6 | x6 | x6 | x6 | x6 | x6 | x6 | x6 | x6 | x6 | x6 | x6 | x6 | x6 | x6 | E2 D2 C2 :| %18
 x6 | x6 | x6 | x6 | x6 | x6 | x6 | x6 | x6 | x6 | x6 | x6 | x6 | x6 | x6 | x6 | x6 | x6 | x6 | %37
 x6 | x6 | x6 | x6 | x6 | x6 | x6 | x6 | x6 | x6 | x6 | x6 | x6 | x6 ||[K:G] x6 |] %52
V:6
 x6 | x6 | x6 | x6 | x6 | x6 | x6 | x6 | x[K:treble] x5/2[K:bass] x5/2 | x6 | x6 | x6 | x6 | x6 | %14
 x6 | x6 | x6 | (3F,/F,/F,/ (3F,/F,/F,/ x2 x2 :| x6 | x6 | x6 | x6 | x6 | x6 | x6 | x6 | x6 | x6 | %28
 x6 | x6 | x6 | x6 | x6 | x6 | x6 | x6 | x6 | x6 | x6 | x6 | x6 | x6 | x6 | x6 | x6 | x6 | x6 | %47
 x6 | x6 | [G,,D,] x [G,,D,] x [G,,D,] x | (3(G,,/^F,,/G,,/ (3^C,,/D,,/^F,,,/ G,,,2 E,,2) || %51
[K:G] (3G,,/F,,/G,,/ (3^C,,/D,,/F,,,/ G,,,2 D,, x |] %52
V:7
 x6 | x6 | x6 | x6 | x6 | x6 | x6 | x6 | x[K:treble] x5/2[K:bass] x5/2 | x6 | x6 | x6 | x6 | x6 | %14
 x6 | x6 | x6 | x6 :| x6 | x6 | x6 | x6 | x6 | x6 | x6 | x6 | x6 | x6 | x6 | x6 | x6 | x6 | x6 | %33
 x6 | x6 | x6 | x6 | x6 | x6 | x6 | x6 | x6 | %42
 (3[_A,=B,]/[A,B,]/[A,B,]/ (3[A,B,]/[A,B,]/[A,B,]/ (3[G,C]/[G,C]/[G,C]/ (3[G,C]/[G,C]/[G,C]/ (3[G,B,]/[G,B,]/[G,B,]/ (3[G,C]/[G,C]/[G,C]/ | %43
 (3[_G,C]/[G,C]/[G,C]/ (3[G,C]/[G,C]/[G,C]/ (3[F,C]/[F,C]/[F,C]/ (3[^F,C]/[F,C]/[F,C]/ (3[=G,B,]/[G,B,]/[G,B,]/ (3[=F,_A,]/[F,A,]/[F,A,]/ | %44
 (3[E,G,]/[E,G,]/[E,G,]/ (3[E,G,]/[E,G,]/[E,G,]/ (3[D,B,]/[D,B,]/[D,B,]/ (3[D,G,]/[D,G,]/[D,G,]/ (3[D,A,]/[D,A,]/[D,A,]/ (3[D,^F,]/[D,F,]/[D,F,]/ | %45
 x6 | x6 |{/G,,,} (3(G,,/^F,,/G,,/ (3^C,,/D,,/^F,,,/ G,,,2-) (3G,,,/(E,/D,/ (3=C,/_B,,/A,,/ | %48
 (3G,,/^F,,/G,,/ (3^C,,/D,,/^F,,,/) G,,,2- (3G,,,/E,/D,/ (3=C,/_B,,/A,,/ | x6 | x6 ||[K:G] x6 |] %52

